source/assets/images/mask-bl.svg

<svg xmlns="http://www.w3.org/2000/svg" xmlns:xlink="http://www.w3.org/1999/xlink" preserveAspectRatio="xMidYMid" width="40" height="40" viewBox="0 0 40 40">
  <defs>
    <style>
      .cls-1 {
        fill: #d4d4d4;
      }

      .cls-1, .cls-2, .cls-3 {
        fill-rule: evenodd;
      }

      .cls-2 {
        fill: #ebebeb;
      }

      .cls-3 {
        fill: #fff;
      }
    </style>
  </defs>
  <g>
    <path d="M40.000,8.000 L40.000,24.000 L31.000,24.000 L22.000,16.000 L31.000,8.000 L36.000,4.000 L40.000,8.000 Z" class="cls-1"/>
    <path d="M32.000,-0.000 L16.000,-0.000 L16.000,9.000 L23.000,17.000 L36.000,4.000 L32.000,-0.000 Z" class="cls-2"/>
    <path d="M16.000,8.000 L24.000,16.000 L30.393,9.607 C30.393,9.607 30.393,9.607 30.393,9.607 L24.000,16.000 L32.000,24.000 L40.000,24.000 C40.000,32.502 40.000,40.000 40.000,40.000 L16.000,40.000 L0.000,24.000 L0.000,0.000 C0.000,0.000 7.497,0.000 16.000,0.000 L16.000,8.000 Z" class="cls-3"/>
  </g>
</svg>

<svg xmlns="http://www.w3.org/2000/svg" preserveAspectRatio="xMidYMid" width="40" height="40" viewBox="0 0 40 40"><defs><style>.cls-1{fill:#d4d4d4}.cls-1,.cls-2,.cls-3{fill-rule:evenodd}.cls-2{fill:#ebebeb}.cls-3{fill:#fff}</style></defs><path d="M40 8v16h-9l-9-8 9-8 5-4 4 4z" class="cls-1"/><path d="M32 0H16v9l7 8L36 4l-4-4z" class="cls-2"/><path d="M16 8l8 8 6.393-6.393L24 16l8 8h8v16H16L0 24V0h16v8z" class="cls-3"/></svg>
